X:1
T: Miss Grant of Elchies
C:William Marshall
R:Strathspey
Q: 128
K:Bb
M:4/4
L:1/16
|:B,B3 B3c dB3 B4|Cc3 c3d ec3 c4|df3 f3g fb3 d3B|F3B ABcA dB3 B4|
B,B3 B3c dB3 B4|Cc3 c3d ec3 c4|df3 f3g fb3 d3B|F3B ABcA dB3 B2Bc|
d3B e3c dB3 G4|FB3 G3B Ac3 c2Bc|d3B e3c dB3 G4|F3B ABcA dB3 B2Bc|
d3B e3c dB3 G4|FB3 G3B Ac3 c2Bc|df3 f3g fb3 d4|F3B ABcA dB3 B4:|
